X:78
T:Rheidol
M:4/2
L:1/2
Q:100
C:Ieuan Gwyllt 1822 - 77
R:Hymn
K:G
E ^D E F | G A F E | B c B G | A G F2 | E ^D E F | G A F E|
| G F E F | G A B2 | B c A2 | A B G2 | F B B E/2F/2 |
G F E2 ||
